www/assets/icons/broadcast_on_home.svg

<svg xmlns="http://www.w3.org/2000/svg" width="24" height="24" viewBox="0 0 24 24" fill='currentColor'><path d="M21.25 5c0-1.1-.9-2-2-2h-16v2h16v2.59c.73.29 1.4.69 2 1.17zm-14 3h-5c-.5 0-1 .5-1 1v9c0 .5.5 1 1 1h5c.5 0 1-.5 1-1V9c0-.5-.5-1-1-1m-1 9h-3v-7h3zM17 15.97c.3-.23.5-.57.5-.97a1.25 1.25 0 0 0-2.5 0c0 .4.2.75.5.97V21H17z"/><path d="M16.25 12.5a2.5 2.5 0 0 1 2.5 2.5c0 .69-.28 1.31-.73 1.76l1.06 1.06c.72-.72 1.17-1.72 1.17-2.82 0-2.21-1.79-4-4-4s-4 1.79-4 4c0 1.1.45 2.1 1.17 2.83l1.06-1.06a2.5 2.5 0 0 1 1.77-4.27"/><path d="M16.25 8.5a6.5 6.5 0 0 0-6.5 6.5c0 1.79.73 3.42 1.9 4.6l1.06-1.06c-.9-.91-1.46-2.16-1.46-3.54 0-2.76 2.24-5 5-5s5 2.24 5 5c0 1.37-.56 2.62-1.46 3.52l1.07 1.06A6.5 6.5 0 0 0 16.25 8.5"/></svg>

<svg width="24" height="24" viewBox="0 0 24 24" xmlns="http://www.w3.org/2000/svg" fill='currentColor'><path d="M21.25 5C21.25 3.9 20.35 3 19.25 3H3.25V5H19.25V7.59C19.98 7.88 20.65 8.28 21.25 8.76V5Z"/><path d="M7.25 8H2.25C1.75 8 1.25 8.5 1.25 9V18C1.25 18.5 1.75 19 2.25 19H7.25C7.75 19 8.25 18.5 8.25 18V9C8.25 8.5 7.75 8 7.25 8ZM6.25 17H3.25V10H6.25V17Z"/><path d="M17 15.97C17.3 15.74 17.5 15.4 17.5 15C17.5 14.31 16.94 13.75 16.25 13.75C15.56 13.75 15 14.31 15 15C15 15.4 15.2 15.75 15.5 15.97V21H17V15.97Z"/><path d="M16.25 12.5C17.63 12.5 18.75 13.62 18.75 15C18.75 15.69 18.47 16.31 18.02 16.76L19.08 17.82C19.8 17.1 20.25 16.1 20.25 15C20.25 12.79 18.46 11 16.25 11C14.04 11 12.25 12.79 12.25 15C12.25 16.1 12.7 17.1 13.42 17.83L14.48 16.77C14.03 16.32 13.75 15.69 13.75 15C13.75 13.62 14.87 12.5 16.25 12.5Z"/><path d="M16.25 8.5C12.66 8.5 9.75 11.41 9.75 15C9.75 16.79 10.48 18.42 11.65 19.6L12.71 18.54C11.81 17.63 11.25 16.38 11.25 15C11.25 12.24 13.49 10 16.25 10C19.01 10 21.25 12.24 21.25 15C21.25 16.37 20.69 17.62 19.79 18.52L20.86 19.58C22.03 18.4 22.75 16.78 22.75 15C22.75 11.41 19.84 8.5 16.25 8.5Z"/></svg>
